x-pack/solutions/search/plugins/enterprise_search/public/assets/images/reporter.svg

<svg width="56" height="56" viewBox="0 0 56 56" fill="none" xmlns="http://www.w3.org/2000/svg">
<rect width="56" height="56" rx="28" fill="#E4A6C7"/>
<g clip-path="url(#clip0_1564_106675)">
<path fill-rule="evenodd" clip-rule="evenodd" d="M27.21 10.2375L23.185 8.89505C22.8488 8.7833 22.4926 8.7443 22.1401 8.78064C21.7877 8.81698 21.447 8.92783 21.1406 9.10583C20.8342 9.28384 20.5692 9.52494 20.3631 9.81315C20.1569 10.1014 20.0144 10.4301 19.945 10.7775L18.5 18H14.25C13.9185 18 13.6005 18.1317 13.3661 18.3662C13.1317 18.6006 13 18.9185 13 19.25C13 19.5816 13.1317 19.8995 13.3661 20.1339C13.6005 20.3684 13.9185 20.5 14.25 20.5H18.315C17.8121 22.4489 17.908 24.504 18.59 26.3976L13.41 25.535C13.052 25.4755 12.6854 25.4947 12.3355 25.5911C11.9857 25.6876 11.661 25.859 11.3841 26.0936C11.1072 26.3282 10.8847 26.6202 10.732 26.9494C10.5793 27.2786 10.5002 27.6372 10.5 28V30.5C11.41 30.5 12.265 30.7425 13 31.17V28L15.5 28.4175L20.1475 29.1925L25.555 30.0925L26.75 30.2925V45.2925L13 43V39.83C12.2404 40.27 11.3779 40.5012 10.5 40.5V43C10.5003 43.5918 10.7105 44.1643 11.0931 44.6157C11.4758 45.067 12.0062 45.368 12.59 45.465L27.59 47.965C27.86 48.01 28.14 48.01 28.41 47.965L43.41 45.465C43.9938 45.368 44.5242 45.067 44.9068 44.6157C45.2895 44.1643 45.4997 43.5918 45.5 43V40.5C44.6222 40.5012 43.7596 40.27 43 39.83V43L29.25 45.2925V30.2925L30.445 30.0925L35.8525 29.1925L40.5 28.4151L43 28V31.17C43.7596 30.7301 44.6222 30.4989 45.5 30.5V28C45.4998 27.6372 45.4207 27.2786 45.268 26.9494C45.1153 26.6202 44.8928 26.3282 44.6159 26.0936C44.339 25.859 44.0143 25.6876 43.6645 25.5911C43.3146 25.4947 42.948 25.4755 42.59 25.535L37.4075 26.3976C38.0928 24.5047 38.1896 22.4489 37.685 20.5H41.75C42.0815 20.5 42.3995 20.3684 42.6339 20.1339C42.8683 19.8995 43 19.5816 43 19.25C43 18.9185 42.8683 18.6006 42.6339 18.3662C42.3995 18.1317 42.0815 18 41.75 18H37.5L36.055 10.775C35.985 10.4277 35.842 10.0993 35.6355 9.81142C35.4289 9.52357 35.1636 9.2829 34.857 9.10537C34.5504 8.92784 34.2095 8.81751 33.8571 8.78168C33.5046 8.74585 33.1486 8.78535 32.8125 8.89755L28.79 10.2375C28.2772 10.4084 27.7228 10.4084 27.21 10.2375ZM34.41 26.8976C34.9862 25.9464 35.3447 24.8795 35.4597 23.7733C35.5747 22.6672 35.4433 21.5494 35.075 20.5H20.925C20.5567 21.5494 20.4253 22.6672 20.5403 23.7733C20.6553 24.8795 21.0138 25.9464 21.59 26.8976L28 27.965L34.41 26.8976ZM35 18H31L30.5 15.5L34.25 14.25L35 18ZM10.5 38C11.163 38 11.7989 37.7367 12.2678 37.2678C12.7366 36.799 13 36.1631 13 35.5C13 34.837 12.7366 34.2011 12.2678 33.7323C11.7989 33.2634 11.163 33 10.5 33C9.83696 33 9.20107 33.2634 8.73223 33.7323C8.26339 34.2011 8 34.837 8 35.5C8 36.1631 8.26339 36.799 8.73223 37.2678C9.20107 37.7367 9.83696 38 10.5 38ZM45.5 38C46.163 38 46.7989 37.7367 47.2678 37.2678C47.7366 36.799 48 36.1631 48 35.5C48 34.837 47.7366 34.2011 47.2678 33.7323C46.7989 33.2634 46.163 33 45.5 33C44.837 33 44.2011 33.2634 43.7322 33.7323C43.2634 34.2011 43 34.837 43 35.5C43 36.1631 43.2634 36.799 43.7322 37.2678C44.2011 37.7367 44.837 38 45.5 38Z" fill="#C4407C"/>
</g>
<defs>
<clipPath id="clip0_1564_106675">
<rect width="40" height="40" fill="white" transform="translate(8 8)"/>
</clipPath>
</defs>
</svg>

<svg xmlns="http://www.w3.org/2000/svg" width="56" height="56" fill="none"><rect width="56" height="56" fill="#E4A6C7" rx="28"/><g clip-path="url(#a)"><path fill="#C4407C" fill-rule="evenodd" d="m27.21 10.238-4.025-1.343a2.5 2.5 0 0 0-3.24 1.883L18.5 18h-4.25a1.25 1.25 0 1 0 0 2.5h4.065a10 10 0 0 0 .275 5.898l-5.18-.863A2.5 2.5 0 0 0 10.5 28v2.5c.91 0 1.765.242 2.5.67V28l2.5.418 4.648.774 5.407.9 1.195.2v15L13 43v-3.17c-.76.44-1.622.671-2.5.67V43a2.5 2.5 0 0 0 2.09 2.465l15 2.5c.27.045.55.045.82 0l15-2.5A2.5 2.5 0 0 0 45.5 43v-2.5a5 5 0 0 1-2.5-.67V43l-13.75 2.292v-15l1.195-.2 5.407-.9 4.648-.777L43 28v3.17a5 5 0 0 1 2.5-.67V28a2.5 2.5 0 0 0-2.91-2.465l-5.183.863a9.98 9.98 0 0 0 .278-5.898h4.065a1.25 1.25 0 1 0 0-2.5H37.5l-1.445-7.225a2.5 2.5 0 0 0-3.242-1.877l-4.023 1.34c-.513.17-1.067.17-1.58 0m7.2 16.66a7.53 7.53 0 0 0 .665-6.398h-14.15a7.53 7.53 0 0 0 .665 6.398L28 27.965zM35 18h-4l-.5-2.5 3.75-1.25zM10.5 38a2.5 2.5 0 1 0 0-5 2.5 2.5 0 0 0 0 5m35 0a2.5 2.5 0 1 0 0-5 2.5 2.5 0 0 0 0 5" clip-rule="evenodd"/></g><defs><clipPath id="a"><path fill="#fff" d="M8 8h40v40H8z"/></clipPath></defs></svg>
